assets/images/icons/github.svg

<svg width="42" height="41" viewBox="0 0 42 41" fill="none" xmlns="http://www.w3.org/2000/svg">
<path d="M22.8258 0C23.9561 0.149299 25.0911 0.263314 26.2014 0.541926C30.6212 1.65167 34.3083 3.92994 37.2297 7.41789C39.4354 10.0233 40.9412 13.144 41.6059 16.4875C42.0334 18.6866 42.113 20.9388 41.8419 23.1624C41.5351 25.9422 40.6287 28.6231 39.1848 31.0212C36.5525 35.4096 32.8406 38.499 27.9665 40.1648C27.0367 40.4822 26.3689 39.9967 26.363 38.9892C26.3536 37.0977 26.363 35.2074 26.3548 33.3171C26.3548 32.0521 26.0775 30.8801 25.1749 29.9079C24.8728 29.5811 25.3058 29.6199 25.4274 29.6058C26.2028 29.5226 26.9705 29.3792 27.7234 29.1767C29.7104 28.6206 31.4908 27.719 32.7214 25.9944C33.5638 24.8188 33.9957 23.4599 34.2234 22.0433C34.5042 20.2964 34.5715 18.5506 33.9874 16.839C33.6863 15.9323 33.2048 15.0954 32.5716 14.3785C32.4714 14.2827 32.4033 14.1587 32.3763 14.0231C32.3493 13.8874 32.3647 13.7468 32.4205 13.6202C32.9692 11.9932 32.7556 10.398 32.1716 8.82505C32.1457 8.74175 32.0926 8.66947 32.0208 8.61964C31.949 8.56981 31.8625 8.54529 31.7751 8.54998C31.3171 8.52697 30.8589 8.5916 30.4254 8.74041C29.1597 9.1585 27.9567 9.74535 26.8491 10.485C26.7325 10.5719 26.5966 10.6297 26.4529 10.6536C26.3093 10.6776 26.1619 10.6669 26.0232 10.6225C24.5 10.1887 22.9307 10.0347 21.3591 10.023C19.7712 9.99524 18.1872 10.1879 16.6526 10.5955C16.4765 10.6511 16.2895 10.6638 16.1074 10.6325C15.9252 10.6012 15.7533 10.5268 15.606 10.4156C14.3618 9.58786 12.9847 8.978 11.5343 8.61229C11.5083 8.60524 11.4824 8.59581 11.4564 8.59111C10.6093 8.4136 10.4535 8.49825 10.2046 9.30234C9.74558 10.7859 9.6571 12.2742 10.1869 13.7613C10.2217 13.8479 10.2299 13.943 10.2103 14.0342C10.1908 14.1255 10.1444 14.2089 10.0771 14.2739C8.41587 16.1654 7.97576 18.3884 8.20112 20.8324C8.34624 22.4148 8.69549 23.9266 9.43999 25.3337C10.3107 26.9795 11.7372 27.9905 13.4138 28.7053C14.5619 29.1955 15.7736 29.4259 17.003 29.5846C17.1635 29.6046 17.3782 29.5846 17.4419 29.7292C17.5139 29.8914 17.3086 29.9972 17.206 30.116C16.7104 30.7038 16.4473 31.4091 16.3069 32.1509C16.2739 32.3296 16.242 32.4965 16.0532 32.5765C14.7731 33.1172 12.6941 33.3994 11.4163 32.2931C10.9608 31.9151 10.5716 31.4642 10.2647 30.9589C9.66653 29.9349 8.82529 29.1955 7.68789 28.8228C7.29378 28.6825 6.86765 28.6572 6.45961 28.7499C6.1611 28.8205 6.07852 28.9592 6.26494 29.2331C6.40112 29.4501 6.58461 29.6337 6.8018 29.7704C7.9746 30.4416 8.65302 31.5114 9.12733 32.7093C9.56743 33.8214 10.2813 34.6267 11.3962 35.0757C11.9898 35.2947 12.6149 35.417 13.2475 35.4378C14.1052 35.4942 14.9713 35.5224 15.8208 35.3379C16.1276 35.2709 16.2078 35.4002 16.2078 35.6682C16.2078 36.8344 16.229 38.0006 16.2078 39.1668C16.1948 40.0014 15.4704 40.4599 14.6315 40.1731C12.3968 39.4136 10.3285 38.345 8.48312 36.8685C5.24199 34.2822 2.92471 31.0329 1.58319 27.1112C1.11025 25.7014 0.802616 24.2418 0.666416 22.7615C0.655797 22.6557 0.62748 22.5523 0.607422 22.4477V18.908C0.72541 18.1015 0.809188 17.2881 0.968472 16.4898C1.62964 13.1455 3.13442 10.0238 5.34109 7.41906C8.26247 3.92994 11.9484 1.65873 16.3694 0.544279C17.4797 0.264491 18.6112 0.151652 19.7451 0.00235345L22.8258 0Z" fill="white"/>
</svg>

<svg width="42" height="41" fill="none" xmlns="http://www.w3.org/2000/svg"><path d="M22.826 0c1.13.15 2.265.263 3.375.542 4.42 1.11 8.107 3.388 11.029 6.876a20.104 20.104 0 0 1 4.376 9.07c.427 2.199.507 4.45.236 6.674a19.35 19.35 0 0 1-2.657 7.86c-2.633 4.388-6.344 7.477-11.219 9.143-.93.317-1.597-.168-1.603-1.176-.01-1.891 0-3.782-.008-5.672 0-1.265-.277-2.437-1.18-3.41-.302-.326.13-.287.252-.301a15.002 15.002 0 0 0 2.296-.43c1.987-.555 3.768-1.457 4.998-3.182.843-1.175 1.275-2.534 1.502-3.95.281-1.748.349-3.493-.236-5.205a7.094 7.094 0 0 0-1.415-2.46.674.674 0 0 1-.152-.759c.55-1.627.336-3.222-.248-4.795a.392.392 0 0 0-.397-.275 3.6 3.6 0 0 0-1.35.19 14.796 14.796 0 0 0-3.576 1.745.914.914 0 0 1-.826.138c-1.523-.434-3.092-.588-4.664-.6a17.166 17.166 0 0 0-4.706.572 1.159 1.159 0 0 1-1.047-.18 13.16 13.16 0 0 0-4.072-1.803c-.026-.007-.052-.016-.078-.02-.847-.178-1.002-.094-1.251.71-.46 1.484-.548 2.972-.018 4.46a.468.468 0 0 1-.11.512c-1.661 1.891-2.101 4.114-1.876 6.558.145 1.583.494 3.095 1.239 4.502.87 1.646 2.297 2.657 3.974 3.371 1.148.49 2.36.72 3.589.88.16.02.375 0 .439.144.072.162-.133.268-.236.387-.496.588-.759 1.293-.9 2.035-.032.179-.064.345-.253.425-1.28.541-3.359.823-4.637-.283a5.328 5.328 0 0 1-1.151-1.334c-.598-1.024-1.44-1.764-2.577-2.136a2.206 2.206 0 0 0-1.228-.073c-.299.07-.381.21-.195.483.136.217.32.4.537.537 1.173.672 1.851 1.741 2.325 2.94.44 1.111 1.154 1.917 2.27 2.366a5.91 5.91 0 0 0 1.85.362c.858.056 1.724.084 2.574-.1.307-.067.387.062.387.33 0 1.166.021 2.333 0 3.499-.013.834-.738 1.293-1.576 1.006-2.235-.76-4.303-1.828-6.149-3.305-3.241-2.586-5.558-5.835-6.9-9.757a19.21 19.21 0 0 1-.917-4.35c-.01-.105-.039-.209-.059-.313v-3.54c.118-.806.202-1.62.361-2.418a20.049 20.049 0 0 1 4.373-9.07C8.262 3.93 11.948 1.658 16.37.543c1.11-.28 2.242-.392 3.376-.542L22.825 0z" fill="#fff"/></svg>
